X:1
T:Bonny Light Horseman
M:3/4
L:1/8
K:C
 CD| F2F-GA-F| D2 C2 Ac| d2d-c Ac| c4 Ac| d2d-cA-G| F2 D2 FG| A2G-F D2|\
 D4||
